static/img/docsearch-logo-white.svg

<?xml version="1.0" encoding="UTF-8"?>
<svg width="476px" height="78px" viewBox="0 0 476 78" version="1.1" xmlns="http://www.w3.org/2000/svg" xmlns:xlink="http://www.w3.org/1999/xlink">
    <!-- Generator: Sketch 55.2 (78181) - https://sketchapp.com -->
    <title>docsearch-logo</title>
    <desc>Created with Sketch.</desc>
    <g id="Docsearch-V3" stroke="none" stroke-width="1" fill="none" fill-rule="evenodd">
        <g id="docsearch-logo" fill-rule="nonzero">
            <path d="M36.4933333,77.2891139 L3.07416667,77.2891139 C1.3763513,77.2891139 0,75.9187652 0,74.2283544 L36.5230833,74.2283544 C49.2916366,74.2900848 61.1233434,67.5648923 67.561314,56.586092 C73.9992847,45.6072916 74.0654385,32.0428244 67.7348557,21.002294 C61.404273,9.96176365 49.6387199,3.12248929 36.8701667,3.06075949 L0,3.06075949 C0,1.3703487 1.3763513,0 3.07416667,0 L36.8701667,0 C47.1799191,0.0104632345 57.0627976,4.10020304 64.3426603,11.3686868 C71.622523,18.6371705 75.702425,28.4883865 75.6840621,38.7531646 C75.6245,60.1192405 57.9430833,77.2891139 36.4933333,77.2891139 Z" id="Shape" fill="#5468FF"></path>
            <path d="M0,69.0448101 L23.71075,69.0448101 C26.6423682,69.0550684 29.4719692,67.9739447 31.6440833,66.0136709 L31.6440833,66.0136709 L0,66.0136709 L0,69.0448101 Z" id="Shape" fill="#FFFFFF"></path>
            <path d="M0,60.8005063 L36.3743333,60.8005063 C37.1081667,59.8131646 37.7924167,58.8258228 38.4270833,57.7298734 L0,57.7298734 L0,60.8005063 Z" id="Shape" fill="#FFFFFF"></path>
            <path d="M0,52.5463291 L41.02525,52.5463291 C41.4318333,51.5589873 41.79875,50.5716456 42.1160833,49.4855696 L0,49.4855696 L0,52.5463291 Z" id="Shape" fill="#FFFFFF"></path>
            <path d="M0,44.3020253 L43.3060833,44.3020253 C43.4548333,43.3146835 43.5738333,42.2681013 43.64325,41.2412658 L0,41.2412658 L0,44.3020253 Z" id="Shape" fill="#FFFFFF"></path>
            <path d="M0,36.0577215 L43.6333333,36.0577215 C43.5639167,35.0210127 43.4449167,33.9941772 43.2961667,32.9870886 L0,32.9870886 L0,36.0577215 Z" id="Shape" fill="#FFFFFF"></path>
            <path d="M0,27.8035443 L42.1160833,27.8035443 C41.79875,26.7668354 41.4318333,25.74 41.02525,24.7427848 L0,24.7427848 L0,27.8035443 Z" id="Shape" fill="#FFFFFF"></path>
            <path d="M0,19.5592405 L38.4270833,19.5592405 C37.7959036,18.5046771 37.1107515,17.4830788 36.3743333,16.498481 L0,16.498481 L0,19.5592405 Z" id="Shape" fill="#FFFFFF"></path>
            <path d="M0,8.2443038 L0,11.3149367 L31.6738333,11.3149367 L31.6738333,11.3149367 C29.502744,9.35300436 26.6724708,8.27162384 23.7405,8.28379747 L0,8.2443038 Z" id="Shape" fill="#FFFFFF"></path>
            <path d="M135.679833,50.0779747 C133.857467,53.3813109 131.098201,56.077032 127.7465,57.8286076 C123.979171,59.7595077 119.784913,60.7169242 115.549,60.6129114 L98.9683333,60.6129114 L98.9683333,16.923038 L115.539083,16.923038 C119.778245,16.8128696 123.978892,17.7490595 127.766333,19.6481013 C131.117724,21.3589797 133.880042,24.0267425 135.699667,27.3098734 C137.592163,30.796513 138.545364,34.711748 138.466417,38.6741772 C138.536692,42.6506388 137.576998,46.5780839 135.679833,50.0779747 Z M124.26575,47.8860759 C126.559806,45.7073418 127.706833,42.6367089 127.706833,38.6741772 C127.706833,34.7116456 126.559806,31.6443038 124.26575,29.4721519 C121.965083,27.2868354 118.745472,26.1941772 114.606917,26.1941772 L109.589083,26.1941772 L109.589083,51.1541772 L114.606917,51.1541772 C118.752083,51.1541772 121.971694,50.0648101 124.26575,47.8860759 Z" id="Shape" fill="#FFFFFF"></path>
            <path d="M175.455583,19.1248101 C178.778997,21.0125003 181.521982,23.7674194 183.388917,27.0926582 C185.363981,30.6103542 186.369802,34.5854361 186.304417,38.6149367 C186.357881,42.6599502 185.331208,46.6465125 183.329417,50.1668354 C181.438453,53.5109093 178.668441,56.2790801 175.31675,58.1741772 C168.344929,62.004212 159.886821,62.004212 152.915,58.1741772 C149.564192,56.2812621 146.796866,53.5123487 144.91225,50.1668354 C142.904645,46.6488476 141.877561,42.6606882 141.93725,38.6149367 C141.876602,34.5784542 142.903926,30.599591 144.91225,27.0926582 C146.806618,23.7647079 149.572472,21.0109162 152.915,19.1248101 C159.911199,15.2936429 168.389968,15.2936429 175.386167,19.1248101 L175.455583,19.1248101 Z M155.899917,29.4425316 C153.857083,31.6870886 152.832361,34.744557 152.825718,38.6149367 C152.819139,42.4853165 153.843861,45.5329114 155.899917,47.7577215 C160.475574,52.286235 167.865259,52.286235 172.440917,47.7577215 C174.496972,45.5 175.525,42.4524051 175.525,38.6149367 C175.525,34.7774684 174.500278,31.7298734 172.450833,29.4721519 C167.856159,24.9616095 160.474758,24.9616095 155.880083,29.4721519 L155.899917,29.4425316 Z" id="Shape" fill="#FFFFFF"></path>
            <path d="M225.108333,20.8822785 C228.807888,23.8729765 231.326363,28.0696152 232.218583,32.7303797 L220.992917,32.7303797 C220.23117,30.8024314 218.899911,29.1499189 217.175,27.9911392 C215.363487,26.8072206 213.232616,26.2010555 211.066333,26.2534177 C208.171408,26.151896 205.393594,27.3960957 203.5495,29.6202532 C201.6455,31.8779747 200.6935,34.9058228 200.6935,38.7037975 C200.6935,42.5017722 201.6455,45.5164557 203.5495,47.7478481 C205.39548,49.9695422 208.172008,51.2131656 211.066333,51.1146835 C213.22748,51.1823181 215.358116,50.5934386 217.175,49.4263291 C218.88921,48.2774286 220.218887,46.6440734 220.992917,44.7364557 L232.2285,44.7364557 C231.327412,49.393857 228.810628,53.5876774 225.11825,56.584557 C221.462306,59.5268354 216.834528,61.0012658 211.234917,61.0078481 C207.306799,61.0934167 203.428376,60.121217 200.00925,58.1939241 C196.799336,56.3367169 194.19876,53.5931576 192.522167,50.2951899 C190.71746,46.7136362 189.812301,42.7496616 189.884333,38.7432911 C189.811087,34.7336358 190.716268,30.7661764 192.522167,27.181519 C194.19876,23.8835513 196.799336,21.1399919 200.00925,19.2827848 C203.428395,17.367541 207.302981,16.4056772 211.225,16.498481 C216.831222,16.498481 221.459,17.9597468 225.108333,20.8822785 Z" id="Shape" fill="#FFFFFF"></path>
            <path d="M267.00625,54.6789873 C265.746742,56.6887326 263.937095,58.2986652 261.790083,59.3194937 C259.180122,60.5355687 256.320749,61.1272646 253.44025,61.0473418 C248.521583,61.0473418 244.468972,59.8526582 241.282417,57.4632911 C238.100352,55.0934231 236.179436,51.4065135 236.06625,47.4516456 L247.361333,47.4516456 C247.443743,48.9216964 248.07302,50.3085152 249.1265,51.3417722 C250.181667,52.3036655 251.574181,52.8142727 253.003917,52.7635443 C254.185488,52.8313439 255.34651,52.4342049 256.23675,51.6577215 C257.030471,50.8792089 257.458747,49.8042318 257.416833,48.6956962 C257.444121,47.6622237 257.050719,46.6616423 256.326,45.9212658 C255.556923,45.1409586 254.640152,44.5201389 253.628667,44.0946835 C252.557667,43.6207595 251.06025,43.1073418 249.15625,42.3964557 C246.832355,41.631224 244.562906,40.7109104 242.363333,39.6417722 C240.553223,38.7109244 238.997831,37.3554683 237.831417,35.6924051 C236.492213,33.6707801 235.829259,31.2793484 235.937333,28.86 C235.875197,26.4642059 236.568818,24.1092735 237.920667,22.1263291 C239.30137,20.182733 241.210816,18.6721146 243.424417,17.7721519 C245.969,16.7236969 248.703542,16.2094249 251.456917,16.261519 C256.335917,16.261519 260.213333,17.4134177 263.089167,19.7172152 C265.987262,22.0657533 267.758273,25.5206486 267.968167,29.2351899 L256.484667,29.2351899 C256.347009,27.9480419 255.789713,26.7412086 254.898,25.7992405 C253.972651,24.9274498 252.729216,24.4707768 251.456917,24.535443 C250.378453,24.4989504 249.322696,24.8493344 248.481917,25.5227848 C247.683067,26.2706544 247.264317,27.3365284 247.3415,28.4255696 C247.309951,29.3971776 247.666556,30.3416121 248.333167,31.0518987 C249.063733,31.8085442 249.940863,32.4097806 250.9115,32.8192405 C251.942833,33.2734177 253.430333,33.8493671 255.374,34.5470886 C257.740146,35.3085002 260.044246,36.2492259 262.266083,37.3610127 C264.095844,38.3308959 265.669168,39.7180446 266.8575,41.4091139 C268.217114,43.4522079 268.8907,45.8720704 268.781333,48.3205063 C268.79676,50.5633392 268.181911,52.7657739 267.00625,54.6789873 Z" id="Shape" fill="#FFFFFF"></path>
            <polygon id="Shape" fill="#FFFFFF" points="285.262833 25.3253165 285.262833 34.4779747 300.137833 34.4779747 300.137833 42.4556962 285.262833 42.4556962 285.262833 52.1612658 301.952583 52.1612658 301.952583 60.6227848 274.691667 60.6227848 274.691667 16.923038 301.99225 16.923038 301.99225 25.3253165"></polygon>
            <path d="M335.01475,52.6450633 L318.572917,52.6450633 L315.835917,60.6129114 L304.66975,60.6129114 L320.744667,17.2389873 L332.971917,17.2389873 L349.066667,60.6129114 L337.75175,60.6129114 L335.01475,52.6450633 Z M332.287667,44.6081013 L326.823583,28.5440506 L321.3,44.6081013 L332.287667,44.6081013 Z" id="Shape" fill="#FFFFFF"></path>
            <path d="M374.85,60.6129114 L365.349833,44.1144304 L362.95,44.1144304 L362.95,60.6129114 L352.339167,60.6129114 L352.339167,16.923038 L370.466833,16.923038 C373.508993,16.8435316 376.527773,17.4723779 379.28275,18.7594937 C381.540412,19.828704 383.423335,21.5486228 384.687333,23.6962025 C385.910213,25.8753713 386.529647,28.3388933 386.48225,30.8346835 C386.570466,33.7560242 385.638202,36.6173857 383.844417,38.9308861 C381.877062,41.2568908 379.174009,42.8479748 376.178833,43.443038 L386.611167,60.6227848 L374.85,60.6129114 Z M362.95,36.9167089 L369.534667,36.9167089 C371.207011,37.0657381 372.873584,36.5750076 374.1955,35.5443038 C375.253092,34.4466552 375.79366,32.9540184 375.683,31.436962 C375.767371,29.9270053 375.217814,28.4500295 374.16575,27.3592405 C372.881752,26.2782142 371.22085,25.7459206 369.544583,25.8782278 L362.95,25.8782278 L362.95,36.9167089 Z" id="Shape" fill="#FFFFFF"></path>
            <path d="M424.810167,20.8822785 C428.51301,23.8701397 431.032264,28.0680759 431.920417,32.7303797 L420.684833,32.7303797 C419.929851,30.793271 418.59756,29.1325854 416.866917,27.9713924 C415.055936,26.7863192 412.924694,26.1800488 410.75825,26.2336709 C407.862179,26.1339379 405.085496,27.3865779 403.251333,29.6202532 C401.347333,31.8779747 400.395333,34.9058228 400.395333,38.7037975 C400.395333,42.5017722 401.347333,45.5164557 403.251333,47.7478481 C405.092331,49.9704329 407.86646,51.2146235 410.75825,51.1146835 C412.923728,51.1718617 415.055069,50.5690076 416.866917,49.3868354 C418.583624,48.2406543 419.913992,46.606449 420.684833,44.696962 L431.920417,44.696962 C431.023346,49.3558882 428.505797,53.5509834 424.810167,56.5450633 C421.154222,59.4873418 416.526444,60.9617722 410.926833,60.9683544 C406.995369,61.0557096 403.113284,60.0834509 399.69125,58.1544304 C396.482141,56.2993186 393.884239,53.554945 392.214083,50.2556962 C390.405993,46.6753512 389.500641,42.7105345 389.57625,38.7037975 C389.499025,34.6937353 390.40442,30.7253384 392.214083,27.1420253 C393.884239,23.8427766 396.482141,21.0984029 399.69125,19.2432911 C403.114262,17.3177122 406.996288,16.3488797 410.926833,16.4392405 C416.526444,16.4787342 421.154222,17.9597468 424.810167,20.8822785 Z" id="Shape" fill="#FFFFFF"></path>
            <polygon id="Shape" fill="#FFFFFF" points="475.167 16.923038 475.167 60.6129114 464.48675 60.6129114 464.48675 42.3865823 447.8565 42.3865823 447.8565 60.6129114 437.245667 60.6129114 437.245667 16.923038 447.8565 16.923038 447.8565 33.8559494 464.48675 33.8559494 464.48675 16.923038"></polygon>
        </g>
    </g>
</svg>

<svg width="476" height="78" viewBox="0 0 476 78" xmlns="http://www.w3.org/2000/svg"><g fill="none"><path d="M36.493 77.289h-33.419c-1.698 0-3.074-1.37-3.074-3.061h36.523c12.769.062 24.6-6.663 31.038-17.642 6.438-10.979 6.504-24.543.174-35.584-6.331-11.041-18.096-17.88-30.865-17.942h-36.87c0-1.69 1.376-3.061 3.074-3.061h33.796c10.31.01 20.193 4.1 27.472 11.369 7.28 7.268 11.36 17.12 11.341 27.384-.06 21.366-17.741 38.536-39.191 38.536z" fill="#5468FF"/><path d="M0 69.045h23.711c2.932.01 5.761-1.071 7.933-3.031h-31.644v3.031zm0-8.244h36.374c.734-.987 1.418-1.975 2.053-3.071h-38.427v3.071zm0-8.255h41.025c.407-.987.773-1.975 1.091-3.061h-42.116v3.061zm0-8.244h43.306c.149-.987.268-2.034.337-3.061h-43.643v3.061zm0-8.244h43.633c-.069-1.037-.188-2.064-.337-3.071h-43.296v3.071zm0-8.254h42.116c-.317-1.037-.684-2.064-1.091-3.061h-41.025v3.061zm0-8.245h38.427c-.631-1.055-1.316-2.076-2.053-3.061h-36.374v3.061zm0-11.315v3.071h31.674c-2.171-1.962-5.001-3.043-7.933-3.031l-23.741-.039zm135.68 41.834c-1.822 3.303-4.582 5.999-7.933 7.751-3.767 1.931-7.962 2.888-12.197 2.784h-16.581v-43.69h16.571c4.239-.11 8.44.826 12.227 2.725 3.351 1.711 6.114 4.379 7.933 7.662 1.892 3.487 2.846 7.402 2.767 11.364.07 3.976-.889 7.904-2.787 11.404zm-11.414-2.192c2.294-2.179 3.441-5.249 3.441-9.212s-1.147-7.03-3.441-9.202c-2.301-2.185-5.52-3.278-9.659-3.278h-5.018v24.96h5.018c4.145 0 7.365-1.089 9.659-3.268zm51.19-28.761c3.323 1.888 6.066 4.643 7.933 7.968 1.975 3.518 2.981 7.493 2.916 11.522.053 4.045-.973 8.032-2.975 11.552-1.891 3.344-4.661 6.112-8.013 8.007-6.972 3.83-15.43 3.83-22.402 0-3.351-1.893-6.118-4.662-8.003-8.007-2.008-3.518-3.035-7.506-2.975-11.552-.061-4.036.967-8.015 2.975-11.522 1.894-3.328 4.66-6.082 8.003-7.968 6.996-3.831 15.475-3.831 22.471 0h.069zm-19.556 10.318c-2.043 2.245-3.068 5.302-3.074 9.172-.007 3.87 1.018 6.918 3.074 9.143 4.576 4.529 11.965 4.529 16.541 0 2.056-2.258 3.084-5.305 3.084-9.143 0-3.837-1.025-6.885-3.074-9.143-4.595-4.511-11.976-4.511-16.571 0l.02-.03zm69.208-8.561c3.7 2.991 6.218 7.187 7.11 11.848h-11.226c-.762-1.928-2.093-3.58-3.818-4.739-1.812-1.184-3.942-1.79-6.109-1.738-2.895-.102-5.673 1.143-7.517 3.367-1.904 2.258-2.856 5.286-2.856 9.084s.952 6.813 2.856 9.044c1.846 2.222 4.623 3.465 7.517 3.367 2.161.068 4.292-.521 6.109-1.688 1.714-1.149 3.044-2.782 3.818-4.69h11.236c-.901 4.657-3.418 8.851-7.11 11.848-3.656 2.942-8.284 4.417-13.883 4.423-3.928.086-7.807-.887-11.226-2.814-3.21-1.857-5.81-4.601-7.487-7.899-1.805-3.582-2.71-7.546-2.638-11.552-.073-4.01.832-7.977 2.638-11.562 1.677-3.298 4.277-6.042 7.487-7.899 3.419-1.915 7.294-2.877 11.216-2.784 5.606 0 10.234 1.461 13.883 4.384zm41.898 33.797c-1.26 2.01-3.069 3.62-5.216 4.641-2.61 1.216-5.469 1.808-8.35 1.728-4.919 0-8.971-1.195-12.158-3.584-3.182-2.37-5.103-6.057-5.216-10.012h11.295c.082 1.47.712 2.857 1.765 3.89 1.055.962 2.448 1.473 3.877 1.422 1.182.068 2.343-.329 3.233-1.106.794-.779 1.222-1.853 1.18-2.962.027-1.033-.366-2.034-1.091-2.774-.769-.78-1.686-1.401-2.697-1.827-1.071-.474-2.568-.987-4.472-1.698-2.324-.765-4.593-1.686-6.793-2.755-1.81-.931-3.366-2.286-4.532-3.949-1.339-2.022-2.002-4.413-1.894-6.832-.062-2.396.631-4.751 1.983-6.734 1.381-1.944 3.29-3.454 5.504-4.354 2.545-1.048 5.279-1.563 8.032-1.511 4.879 0 8.756 1.152 11.632 3.456 2.898 2.349 4.669 5.803 4.879 9.518h-11.483c-.138-1.287-.695-2.494-1.587-3.436-.925-.872-2.169-1.328-3.441-1.264-1.078-.036-2.134.314-2.975.987-.799.748-1.218 1.814-1.14 2.903-.032.972.325 1.916.992 2.626.731.757 1.608 1.358 2.578 1.767 1.031.454 2.519 1.03 4.463 1.728 2.366.761 4.67 1.702 6.892 2.814 1.83.97 3.403 2.357 4.591 4.048 1.36 2.043 2.033 4.463 1.924 6.911.015 2.243-.599 4.445-1.775 6.358zm18.257-29.354v9.153h14.875v7.978h-14.875v9.706h16.69v8.462h-27.261v-43.7h27.301v8.402zm49.752 27.32h-16.442l-2.737 7.968h-11.166l16.075-43.374h12.227l16.095 43.374h-11.315l-2.737-7.968zm-2.727-8.037l-5.464-16.064-5.524 16.064h10.988zm42.562 16.005l-9.5-16.498h-2.4v16.498h-10.611v-43.69h18.128c3.042-.08 6.061.549 8.816 1.836 2.258 1.069 4.141 2.789 5.405 4.937 1.223 2.179 1.842 4.643 1.795 7.138.088 2.921-.844 5.783-2.638 8.096-1.967 2.326-4.67 3.917-7.666 4.512l10.432 17.18-11.761-.01zm-11.9-23.696h6.585c1.672.149 3.339-.342 4.661-1.372 1.058-1.098 1.598-2.59 1.488-4.107.084-1.51-.465-2.987-1.517-4.078-1.284-1.081-2.945-1.613-4.621-1.481h-6.595v11.038zm61.86-16.035c3.703 2.988 6.222 7.186 7.11 11.848h-11.236c-.755-1.937-2.087-3.598-3.818-4.759-1.811-1.185-3.942-1.791-6.109-1.738-2.896-.1-5.673 1.153-7.507 3.387-1.904 2.258-2.856 5.286-2.856 9.084s.952 6.813 2.856 9.044c1.841 2.223 4.615 3.467 7.507 3.367 2.165.057 4.297-.546 6.109-1.728 1.717-1.146 3.047-2.78 3.818-4.69h11.236c-.897 4.659-3.415 8.854-7.11 11.848-3.656 2.942-8.284 4.417-13.883 4.423-3.931.087-7.814-.885-11.236-2.814-3.209-1.855-5.807-4.599-7.477-7.899-1.808-3.58-2.713-7.545-2.638-11.552-.077-4.01.828-7.978 2.638-11.562 1.67-3.299 4.268-6.044 7.477-7.899 3.423-1.926 7.305-2.894 11.236-2.804 5.6.039 10.227 1.521 13.883 4.443zm50.357-3.959v43.69h-10.68v-18.226h-16.63v18.226h-10.611v-43.69h10.611v16.933h16.63v-16.933z" fill="#fff"/></g></svg>
